svg/SJJB-OpenStreetMapIcons/accommodation/bed_and_breakfast.svg

<?xml version="1.0" encoding="UTF-8" standalone="no"?>
<!-- Created with Inkscape (http://www.inkscape.org/) -->
<svg
   xmlns:dc="http://purl.org/dc/elements/1.1/"
   xmlns:cc="http://creativecommons.org/ns#"
   xmlns:rdf="http://www.w3.org/1999/02/22-rdf-syntax-ns#"
   xmlns:svg="http://www.w3.org/2000/svg"
   xmlns="http://www.w3.org/2000/svg"
   xmlns:sodipodi="http://sodipodi.sourceforge.net/DTD/sodipodi-0.dtd"
   xmlns:inkscape="http://www.inkscape.org/namespaces/inkscape"
   version="1.0"
   width="580"
   height="580"
   id="svg2"
   sodipodi:version="0.32"
   inkscape:version="0.46"
   sodipodi:docname="accommodation_bed_and_breakfast.svg"
   sodipodi:docbase="s:\Data\FacilityIcons"
   inkscape:output_extension="org.inkscape.output.svg.inkscape">
  <metadata
     id="metadata2975">
    <rdf:RDF>
      <cc:Work
         rdf:about="">
        <dc:format>image/svg+xml</dc:format>
        <dc:type
           rdf:resource="http://purl.org/dc/dcmitype/StillImage" />
      </cc:Work>
    </rdf:RDF>
  </metadata>
  <sodipodi:namedview
     inkscape:window-height="1003"
     inkscape:window-width="1400"
     inkscape:pageshadow="2"
     inkscape:pageopacity="0.0"
     guidetolerance="10.0"
     gridtolerance="10.0"
     objecttolerance="10.0"
     borderopacity="1.0"
     bordercolor="#666666"
     pagecolor="#ffffff"
     id="base"
     inkscape:zoom="0.92167712"
     inkscape:cx="363.87523"
     inkscape:cy="431.55199"
     inkscape:window-x="0"
     inkscape:window-y="20"
     inkscape:current-layer="svg2"
     showgrid="false" />
  <defs
     id="defs4">
    <inkscape:perspective
       sodipodi:type="inkscape:persp3d"
       inkscape:vp_x="0 : 290 : 1"
       inkscape:vp_y="0 : 1000 : 0"
       inkscape:vp_z="580 : 290 : 1"
       inkscape:persp3d-origin="290 : 193.33333 : 1"
       id="perspective2441" />
    <inkscape:perspective
       id="perspective2466"
       inkscape:persp3d-origin="372.04724 : 350.78739 : 1"
       inkscape:vp_z="744.09448 : 526.18109 : 1"
       inkscape:vp_y="0 : 1000 : 0"
       inkscape:vp_x="0 : 526.18109 : 1"
       sodipodi:type="inkscape:persp3d" />
    <inkscape:perspective
       id="perspective3333"
       inkscape:persp3d-origin="372.04724 : 350.78739 : 1"
       inkscape:vp_z="744.09448 : 526.18109 : 1"
       inkscape:vp_y="0 : 1000 : 0"
       inkscape:vp_x="0 : 526.18109 : 1"
       sodipodi:type="inkscape:persp3d" />
    <inkscape:perspective
       id="perspective3401"
       inkscape:persp3d-origin="372.04724 : 350.78739 : 1"
       inkscape:vp_z="744.09448 : 526.18109 : 1"
       inkscape:vp_y="0 : 1000 : 0"
       inkscape:vp_x="0 : 526.18109 : 1"
       sodipodi:type="inkscape:persp3d" />
    <inkscape:perspective
       id="perspective3464"
       inkscape:persp3d-origin="372.04724 : 350.78739 : 1"
       inkscape:vp_z="744.09448 : 526.18109 : 1"
       inkscape:vp_y="0 : 1000 : 0"
       inkscape:vp_x="0 : 526.18109 : 1"
       sodipodi:type="inkscape:persp3d" />
    <inkscape:perspective
       id="perspective3581"
       inkscape:persp3d-origin="225 : 150 : 1"
       inkscape:vp_z="450 : 225 : 1"
       inkscape:vp_y="0 : 1000 : 0"
       inkscape:vp_x="0 : 225 : 1"
       sodipodi:type="inkscape:persp3d" />
    <inkscape:perspective
       id="perspective4312"
       inkscape:persp3d-origin="225 : 150 : 1"
       inkscape:vp_z="450 : 225 : 1"
       inkscape:vp_y="0 : 1000 : 0"
       inkscape:vp_x="0 : 225 : 1"
       sodipodi:type="inkscape:persp3d" />
    <inkscape:perspective
       id="perspective8860"
       inkscape:persp3d-origin="372.04724 : 350.78739 : 1"
       inkscape:vp_z="744.09448 : 526.18109 : 1"
       inkscape:vp_y="0 : 1000 : 0"
       inkscape:vp_x="0 : 526.18109 : 1"
       sodipodi:type="inkscape:persp3d" />
    <inkscape:perspective
       id="perspective8887"
       inkscape:persp3d-origin="372.04724 : 350.78739 : 1"
       inkscape:vp_z="744.09448 : 526.18109 : 1"
       inkscape:vp_y="0 : 1000 : 0"
       inkscape:vp_x="0 : 526.18109 : 1"
       sodipodi:type="inkscape:persp3d" />
    <inkscape:perspective
       sodipodi:type="inkscape:persp3d"
       inkscape:vp_x="0 : 16 : 1"
       inkscape:vp_y="0 : 1000 : 0"
       inkscape:vp_z="32 : 16 : 1"
       inkscape:persp3d-origin="16 : 10.666667 : 1"
       id="perspective4904" />
    <inkscape:perspective
       sodipodi:type="inkscape:persp3d"
       inkscape:vp_x="0 : 6 : 1"
       inkscape:vp_y="0 : 1000 : 0"
       inkscape:vp_z="12 : 6 : 1"
       inkscape:persp3d-origin="6 : 4 : 1"
       id="perspective4668" />
    <inkscape:perspective
       sodipodi:type="inkscape:persp3d"
       inkscape:vp_x="0 : 526.18109 : 1"
       inkscape:vp_y="0 : 1000 : 0"
       inkscape:vp_z="744.09448 : 526.18109 : 1"
       inkscape:persp3d-origin="372.04724 : 350.78739 : 1"
       id="perspective4471" />
    <symbol
       id="symbol-university"
       viewBox="244.5 110 489 219.9">
      <path
         d="M79,43l57,119c0,0,21-96,104-96s124,106,124,106l43-133l82-17L0,17L79,43z"
         id="path4460" />
      <path
         fill="none"
         stroke="#000000"
         stroke-width="20"
         d="M94,176l-21,39"
         id="path4462" />
      <path
         d="M300,19c0,10.5-22.6,19-50.5,19S199,29.5,199,19s22.6-19,50.5-19S300,8.5,300,19z"
         id="path4464" />
      <path
         ill="none"
         stroke="#000000"
         stroke-width="20"
         d="M112,216l-16-38L64,88c0,0-9-8-4-35s16-24,16-24"
         id="path4466" />
    </symbol>
    <inkscape:perspective
       sodipodi:type="inkscape:persp3d"
       inkscape:vp_x="0 : 30 : 1"
       inkscape:vp_y="0 : 1000 : 0"
       inkscape:vp_z="60 : 30 : 1"
       inkscape:persp3d-origin="30 : 20 : 1"
       id="perspective3452" />
    <inkscape:perspective
       id="perspective9479"
       inkscape:persp3d-origin="290 : 193.33333 : 1"
       inkscape:vp_z="580 : 290 : 1"
       inkscape:vp_y="0 : 1000 : 0"
       inkscape:vp_x="0 : 290 : 1"
       sodipodi:type="inkscape:persp3d" />
  </defs>
  <g
     id="g1327">
    <path
       d="M 66.275,1.768 C 24.94,1.768 1.704,23.139 1.704,66.804 L 1.704,516.927 C 1.704,557.771 22.599,579.156 63.896,579.156 L 515.92,579.156 C 557.227,579.156 578.149,558.841 578.149,516.927 L 578.149,66.804 C 578.149,24.203 557.227,1.768 514.628,1.768 C 514.624,1.768 66.133,1.625 66.275,1.768 z "
       style="fill:#111;stroke:#eee;stroke-width:3.40799999"
       id="path1329" />
  </g>
  <g
     id="layer3"
     inkscape:label="Layout"
     style="stroke:#757575;stroke-opacity:1;display:none"
     transform="matrix(48.14969,0,0,48.14969,-1210.2219,-51.870914)">
    <rect
       style="fill:none;stroke:#757575;stroke-width:0.1;stroke-miterlimit:4;stroke-dasharray:none;stroke-opacity:1;display:inline"
       id="rect4134"
       width="10"
       height="10"
       x="1"
       y="1" />
    <rect
       style="fill:none;stroke:#757575;stroke-width:0.1;stroke-miterlimit:4;stroke-dasharray:none;stroke-opacity:1;display:inline"
       id="rect4136"
       width="8"
       height="8"
       x="2"
       y="2" />
  </g>
  <path
     style="font-size:12px;opacity:0.25;fill:#ffffff;fill-opacity:1;fill-rule:evenodd;stroke:#ffffff;stroke-width:1.36965417999999990;stroke-opacity:1"
     d="M 289.48774,29.657611 L 31.331019,257.74216 L 82.962024,257.74216 L 82.962024,552.34528 L 237.8564,552.34528 L 237.8564,378.47989 L 344.65937,378.47989 L 344.65973,552.34528 L 496.01347,552.34528 L 496.01347,257.74216 L 547.64482,257.74216 L 289.48774,29.657611 L 289.48774,29.657611 L 289.48774,29.657611 z"
     id="path645"
     sodipodi:nodetypes="cccccccccccccc" />
  <path
     sodipodi:nodetypes="cccccccccccccc"
     id="path9518"
     d="M 289.48774,29.657611 L 31.331019,257.74216 L 82.962024,257.74216 L 82.962024,552.34528 L 237.8564,552.34528 L 237.8564,378.47989 L 344.65937,378.47989 L 344.65973,552.34528 L 496.01347,552.34528 L 496.01347,257.74216 L 547.64482,257.74216 L 289.48774,29.657611 L 289.48774,29.657611 L 289.48774,29.657611 z"
     style="font-size:12px;fill:none;fill-opacity:1;fill-rule:evenodd;stroke:#ffffff;stroke-width:12.80533695;stroke-linecap:round;stroke-linejoin:round;stroke-miterlimit:4;stroke-dasharray:none;stroke-opacity:1" />
  <path
     style="font-size:144px;font-style:normal;font-variant:normal;font-weight:normal;font-stretch:normal;text-align:start;line-height:125%;writing-mode:lr-tb;text-anchor:start;fill:#ffffff;fill-opacity:1;stroke:none;stroke-width:1px;stroke-linecap:butt;stroke-linejoin:miter;stroke-opacity:1;font-family:Arial Black;-inkscape-font-specification:Arial Black"
     d="M 125.62492,223.03687 L 185.24992,223.03687 C 195.18734,223.03697 202.81624,225.4979 208.13664,230.41968 C 213.45686,235.34164 216.11701,241.43539 216.11711,248.70093 C 216.11701,254.79475 214.21857,260.02131 210.4218,264.38062 C 207.89046,267.28692 204.18733,269.5838 199.31242,271.27124 C 206.71858,273.05254 212.1678,276.11113 215.66008,280.44702 C 219.15216,284.783 220.89826,290.23221 220.89836,296.79468 C 220.89826,302.13845 219.65607,306.94313 217.1718,311.20874 C 214.68732,315.47438 211.28889,318.84937 206.97649,321.33374 C 204.30452,322.88062 200.27328,324.00562 194.88274,324.70874 C 187.71079,325.64624 182.95298,326.11499 180.6093,326.11499 L 125.62492,326.11499 L 125.62492,223.03687 z M 157.75774,263.46655 L 171.6093,263.46655 C 176.57799,263.46662 180.03501,262.61115 181.98039,260.90015 C 183.92564,259.18928 184.89829,256.71662 184.89836,253.48218 C 184.89829,250.48225 183.92564,248.13851 181.98039,246.45093 C 180.03501,244.76351 176.6483,243.91976 171.82024,243.91968 L 157.75774,243.91968 L 157.75774,263.46655 z M 157.75774,303.96655 L 173.99992,303.96655 C 179.48423,303.96657 183.35142,302.99392 185.60149,301.04858 C 187.85141,299.1033 188.97641,296.49002 188.97649,293.20874 C 188.97641,290.1619 187.86313,287.71268 185.63664,285.86108 C 183.41001,284.00956 179.50767,283.08378 173.92961,283.08374 L 157.75774,283.08374 L 157.75774,303.96655 z M 318.84367,275.98218 L 341.20305,280.97437 C 340.03106,285.09941 338.90606,288.40409 337.82805,290.88843 C 336.74981,293.37284 335.22638,296.30252 333.25774,299.67749 L 344.01555,307.0603 C 345.32793,307.90407 347.01543,308.91188 349.07805,310.08374 L 333.67961,327.80249 C 330.86701,326.30249 327.94904,324.56812 324.9257,322.59937 C 321.90217,320.63062 319.19514,318.94312 316.80461,317.53687 C 311.83578,320.81812 306.86703,323.20874 301.89836,324.70874 C 295.00767,326.77124 287.17955,327.80249 278.41399,327.80249 C 264.67957,327.80249 254.46083,324.94312 247.75774,319.22437 C 241.0546,313.50563 237.70304,306.56813 237.70305,298.41187 C 237.70304,292.55252 239.67179,287.00956 243.6093,281.78296 C 247.54678,276.55645 253.99208,272.13848 262.94524,268.52905 C 259.1952,263.98224 256.61708,260.03303 255.21086,256.6814 C 253.80458,253.32991 253.10146,249.91975 253.10149,246.45093 C 253.10146,239.13851 255.89052,233.11508 261.46867,228.38062 C 267.04676,223.64634 275.50769,221.27916 286.85149,221.27905 C 298.42954,221.27916 306.93734,223.52916 312.37492,228.02905 C 317.81233,232.52915 320.53108,237.91977 320.53117,244.20093 C 320.53108,247.71663 319.69905,251.09163 318.03508,254.32593 C 316.37093,257.56037 314.36702,260.18537 312.02336,262.20093 C 309.67953,264.21661 305.48422,267.21661 299.43742,271.20093 C 304.45297,276.2166 309.67953,280.88066 315.11711,285.19312 C 316.57015,282.28691 317.81233,279.2166 318.84367,275.98218 L 318.84367,275.98218 z M 285.93742,257.91187 C 289.64049,255.89631 292.49986,253.70491 294.51555,251.33765 C 296.5311,248.97054 297.53892,246.73226 297.53899,244.6228 C 297.53892,242.41976 296.69517,240.55648 295.00774,239.03296 C 293.32017,237.50961 290.99986,236.74789 288.0468,236.7478 C 285.14049,236.74789 282.77331,237.59164 280.94524,239.27905 C 279.11706,240.96664 278.203,242.95882 278.20305,245.25562 C 278.203,248.16194 280.78112,252.38069 285.93742,257.91187 L 285.93742,257.91187 z M 275.74211,282.94312 C 271.80457,285.70878 269.19129,288.07597 267.90227,290.04468 C 266.61317,292.01346 265.96863,294.0994 265.96867,296.30249 C 265.96863,299.72439 267.4452,302.77126 270.39836,305.44312 C 273.35144,308.11501 277.19519,309.45094 281.92961,309.45093 C 287.03893,309.45094 292.78111,307.45876 299.15617,303.47437 C 293.06236,298.78689 285.25768,291.94315 275.74211,282.94312 L 275.74211,282.94312 z M 365.53117,223.03687 L 425.15617,223.03687 C 435.09359,223.03697 442.72249,225.4979 448.04289,230.41968 C 453.36311,235.34164 456.02326,241.43539 456.02336,248.70093 C 456.02326,254.79475 454.12482,260.02131 450.32805,264.38062 C 447.79671,267.28692 444.09358,269.5838 439.21867,271.27124 C 446.62483,273.05254 452.07405,276.11113 455.56633,280.44702 C 459.05841,284.783 460.80451,290.23221 460.80461,296.79468 C 460.80451,302.13845 459.56232,306.94313 457.07805,311.20874 C 454.59357,315.47438 451.19514,318.84937 446.88274,321.33374 C 444.21077,322.88062 440.17953,324.00562 434.78899,324.70874 C 427.61704,325.64624 422.85923,326.11499 420.51555,326.11499 L 365.53117,326.11499 L 365.53117,223.03687 z M 397.66399,263.46655 L 411.51555,263.46655 C 416.48424,263.46662 419.94126,262.61115 421.88664,260.90015 C 423.83189,259.18928 424.80454,256.71662 424.80461,253.48218 C 424.80454,250.48225 423.83189,248.13851 421.88664,246.45093 C 419.94126,244.76351 416.55455,243.91976 411.72649,243.91968 L 397.66399,243.91968 L 397.66399,263.46655 z M 397.66399,303.96655 L 413.90617,303.96655 C 419.39048,303.96657 423.25767,302.99392 425.50774,301.04858 C 427.75766,299.1033 428.88266,296.49002 428.88274,293.20874 C 428.88266,290.1619 427.76938,287.71268 425.54289,285.86108 C 423.31626,284.00956 419.41392,283.08378 413.83586,283.08374 L 397.66399,283.08374 L 397.66399,303.96655 z"
     id="text9544" />
</svg>

<svg xmlns="http://www.w3.org/2000/svg" viewBox="0 0 580 580"><path d="m66.28 1.768c-41.34 0-64.57 21.371-64.57 65.04v450.12c0 40.844 20.895 62.23 62.19 62.23h452.02c41.31 0 62.23-20.315 62.23-62.23v-450.12c0-42.601-20.922-65.04-63.52-65.04-.004 0-448.5-.143-448.35 0z" fill="#111" stroke="#eee" stroke-width="3.408"/><g fill-rule="evenodd" stroke="#fff"><path d="m289.49 29.658l-258.16 228.08h51.631v294.6h154.89v-173.87h106.8v173.87h151.35v-294.6h51.631l-258.16-228.08z" opacity=".25" fill="#fff" stroke-width="1.37"/><path d="m289.49 29.658l-258.16 228.08h51.631v294.6h154.89v-173.87h106.8v173.87h151.35v-294.6h51.631l-258.16-228.08z" fill="none" stroke-linejoin="round" stroke-linecap="round" stroke-width="12.805"/></g><path d="m125.62 223.04h59.62c9.937 0 17.566 2.461 22.887 7.383 5.32 4.922 7.98 11.02 7.98 18.281 0 6.094-1.899 11.32-5.695 15.68-2.531 2.906-6.234 5.203-11.11 6.891 7.406 1.781 12.855 4.84 16.348 9.176 3.492 4.336 5.238 9.785 5.238 16.348 0 5.344-1.242 10.148-3.727 14.414-2.484 4.266-5.883 7.641-10.195 10.125-2.672 1.547-6.703 2.672-12.09 3.375-7.172.938-11.93 1.406-14.273 1.406h-54.984v-103.08m32.13 40.43h13.852c4.969 0 8.426-.855 10.371-2.566 1.945-1.711 2.918-4.184 2.918-7.418 0-3-.973-5.344-2.918-7.03-1.945-1.687-5.332-2.531-10.16-2.531h-14.06v19.547m0 40.5h16.242c5.484 0 9.351-.973 11.602-2.918 2.25-1.945 3.375-4.559 3.375-7.84 0-3.047-1.113-5.496-3.34-7.348-2.227-1.852-6.129-2.777-11.707-2.777h-16.17v20.883m161.09-27.984l22.359 4.992c-1.172 4.125-2.297 7.43-3.375 9.914-1.078 2.484-2.602 5.414-4.57 8.789l10.758 7.383c1.312.844 3 1.852 5.063 3.02l-15.398 17.719c-2.813-1.5-5.731-3.234-8.754-5.203-3.02-1.969-5.731-3.656-8.121-5.063-4.969 3.281-9.938 5.672-14.906 7.172-6.891 2.063-14.719 3.094-23.484 3.094-13.734 0-23.953-2.859-30.656-8.578-6.703-5.719-10.05-12.656-10.05-20.813 0-5.859 1.969-11.402 5.906-16.629 3.937-5.227 10.383-9.644 19.336-13.254-3.75-4.547-6.328-8.496-7.734-11.848-1.406-3.351-2.109-6.762-2.109-10.23 0-7.312 2.789-13.336 8.367-18.07 5.578-4.734 14.04-7.101 25.383-7.102 11.578 0 20.09 2.25 25.523 6.75 5.437 4.5 8.156 9.891 8.156 16.17 0 3.516-.832 6.891-2.496 10.125-1.664 3.234-3.668 5.859-6.01 7.875-2.344 2.02-6.539 5.02-12.586 9 5.02 5.02 10.242 9.68 15.68 13.992 1.453-2.906 2.695-5.977 3.727-9.211m-32.906-18.07c3.703-2.02 6.562-4.207 8.578-6.574 2.02-2.367 3.02-4.605 3.02-6.715 0-2.203-.844-4.066-2.531-5.59-1.688-1.523-4.01-2.285-6.961-2.285-2.906 0-5.273.844-7.102 2.531-1.828 1.688-2.742 3.68-2.742 5.977 0 2.906 2.578 7.125 7.734 12.656m-10.195 25.03c-3.938 2.766-6.551 5.133-7.84 7.102-1.289 1.969-1.934 4.055-1.934 6.258 0 3.422 1.477 6.469 4.43 9.141 2.953 2.672 6.797 4.01 11.531 4.01 5.109 0 10.851-1.992 17.227-5.977-6.094-4.687-13.898-11.531-23.414-20.531m89.79-59.906h59.62c9.937 0 17.566 2.461 22.887 7.383 5.32 4.922 7.98 11.02 7.98 18.281 0 6.094-1.899 11.32-5.695 15.68-2.531 2.906-6.234 5.203-11.11 6.891 7.406 1.781 12.855 4.84 16.348 9.176 3.492 4.336 5.238 9.785 5.238 16.348 0 5.344-1.242 10.148-3.727 14.414-2.484 4.266-5.883 7.641-10.195 10.125-2.672 1.547-6.703 2.672-12.09 3.375-7.172.938-11.93 1.406-14.273 1.406h-54.984v-103.08m32.13 40.43h13.852c4.969 0 8.426-.855 10.371-2.566 1.945-1.711 2.918-4.184 2.918-7.418 0-3-.973-5.344-2.918-7.03-1.945-1.687-5.332-2.531-10.16-2.531h-14.06v19.547m0 40.5h16.242c5.484 0 9.352-.973 11.602-2.918 2.25-1.945 3.375-4.559 3.375-7.84 0-3.047-1.113-5.496-3.34-7.348-2.227-1.852-6.129-2.777-11.707-2.777h-16.17v20.883" fill="#fff"/></svg>
